X: 64
T: Requiem / Kyrie
N: Derived from Ock1013b-Requiem-Kyrie.krn
C: Johannes Ockeghem
%%abc-version 2.0
%%abcx-abcm2ps-target-version 5.9.1 (29 Sep 2008)
%%abc-creator hum2abc beta
%%abcx-conversion-date 2019/02/17 07:26:15
%%abc-edited-by Jesse Rodin
%%abc-edited-by Chris Gage 07-02-2012
%%abcx-initial-encoding-date 2012/10/12/
%%humdrum-veritas 3487358157
%%humdrum-veritas-data 2469396422
%%linebreak <none>
%%barnumbers 0
L: 1/4
M: 2/1
Q: 1/2=120
V: 1 clef=treble
V: 2 clef=treble
V: 3 clef=treble-8
V: 4 clef=treble-8
V: 5 clef=bass
K: F
[V:1] F8- | 
[V:2] z8 | 
[V:3] c8- | 
[V:4] F8- | 
[V:5] z8 | 
[V:1] F8 | 
[V:2] z8 | 
[V:3] c8 | 
[V:4] F8 | 
[V:5] z8 | 
[V:1] G8 | 
[V:2] z8 | 
[V:3] _e8- | 
[V:4] c8- | 
[V:5] z8 | 
[V:1] A8 | 
[V:2] z8 | 
[V:3] e8 | 
[V:4] c4B4 | 
[V:5] z8 | 
[V:1] B8- | 
[V:2] z8 | 
[V:3] d8- | 
[V:4] G8- | 
[V:5] z8 | 
[V:1] B8 | 
[V:2] z8 | 
[V:3] d8 | 
[V:4] G8 | 
[V:5] z8 | 
[V:1] A8 | 
[V:2] z8 | 
[V:3] D8 | 
[V:4] F8 | 
[V:5] z8 | 
[V:1] G4G4- | 
[V:2] z8 | 
[V:3] E4G4 | 
[V:4] G4B4 | 
[V:5] z8 | 
[V:1] G4^F4 | 
[V:2] z8 | 
[V:3] D8 | 
[V:4] A8 | 
[V:5] z8 | 
[V:1] G8 | 
[V:2] z8 | 
[V:3] d8- | 
[V:4] G4B4- | 
[V:5] z8 | 
[V:1] z8 | 
[V:2] z8 | 
[V:3] d8 | 
[V:4] B4A4 | 
[V:5] z8 | 
[V:1] A8- | 
[V:2] z8 | 
[V:3] c8 | 
[V:4] F8 | 
[V:5] z8 | 
[V:1] A8 | 
[V:2] z8 | 
[V:3] e8 | 
[V:4] c8 | 
[V:5] z8 | 
[V:1] G4E4 | 
[V:2] z8 | 
[V:3] d4B4 | 
[V:4] B4G4 | 
[V:5] z8 | 
[V:1] F8 | 
[V:2] z8 | 
[V:3] c8 | 
[V:4] A8 | 
[V:5] z8 | 
[V:1] E8- | 
[V:2] z8 | 
[V:3] B6A2 | 
[V:4] G8 | 
[V:5] z8 | 
[V:1] E8 | 
[V:2] z8 | 
[V:3] c8 | 
[V:4] C8 | 
[V:5] z8 | 
[V:1] F4G4- | 
[V:2] z8 | 
[V:3] z4c4- | 
[V:4] D4C4 | 
[V:5] z8 | 
[V:1] G4A4- | 
[V:2] z8 | 
[V:3] c4d4- | 
[V:4] E4D4 | 
[V:5] z8 | 
[V:1] A4F4- | 
[V:2] z8 | 
[V:3] d4c4- | 
[V:4] F8 | 
[V:5] z8 | 
[V:1] F2D2E4 | 
[V:2] z8 | 
[V:3] c4=B4 | 
[V:4] G8 | 
[V:5] z8 | 
[V:1] F8 ||  
[V:2] z8 ||  
[V:3] c8 ||  
[V:4] F8 ||  
[V:5] z8 ||  
[V:1]  [K:F] [K:clef=treble][M:2/1]F8- | 
[V:2]  [K:F] [K:clef=treble][M:2/1]F6G2 | 
[V:3]  [K:F] [K:clef=treble-8][M:2/1]z8 | 
[V:4]  [K:F] [K:clef=treble-8][M:2/1]z8 | 
[V:5]  [K:F] [K:clef=bass][M:2/1]z8 | 
[V:1] F8 | 
[V:2] A4A4 | 
[V:3] z8 | 
[V:4] z8 | 
[V:5] z8 | 
[V:1] G8 | 
[V:2] B6AG | 
[V:3] z8 | 
[V:4] z8 | 
[V:5] z8 | 
[V:1] A8 | 
[V:2] F8 | 
[V:3] z8 | 
[V:4] z8 | 
[V:5] z8 | 
[V:1] B8- | 
[V:2] G6FE | 
[V:3] z8 | 
[V:4] z8 | 
[V:5] z8 | 
[V:1] B4A2G2 | 
[V:2] D4B4- | 
[V:3] z8 | 
[V:4] z8 | 
[V:5] z8 | 
[V:1] F8 | 
[V:2] B2A2A4- | 
[V:3] z8 | 
[V:4] z8 | 
[V:5] z8 | 
[V:1] G4B4 | 
[V:2] A2G2G4- | 
[V:3] z8 | 
[V:4] z8 | 
[V:5] z8 | 
[V:1] A8 | 
[V:2] G4^F4 | 
[V:3] z8 | 
[V:4] z8 | 
[V:5] z8 | 
[V:1] G4G4- | 
[V:2] G8 | 
[V:3] z8 | 
[V:4] z8 | 
[V:5] z8 | 
[V:1] G4^F4 | 
[V:2] z4A4 | 
[V:3] z8 | 
[V:4] z8 | 
[V:5] z8 | 
[V:1] G8 | 
[V:2] G4E4 | 
[V:3] z8 | 
[V:4] z8 | 
[V:5] z8 | 
[V:1] z4A4 | 
[V:2] F8 | 
[V:3] z8 | 
[V:4] z8 | 
[V:5] z8 | 
[V:1] G4E4 | 
[V:2] E4E4- | 
[V:3] z8 | 
[V:4] z8 | 
[V:5] z8 | 
[V:1] F6ED | 
[V:2] E4D4 | 
[V:3] z8 | 
[V:4] z8 | 
[V:5] z8 | 
[V:1] C6D2 | 
[V:2] E6F2 | 
[V:3] z8 | 
[V:4] z8 | 
[V:5] z8 | 
[V:1] E4F4- | 
[V:2] G4A4- | 
[V:3] z8 | 
[V:4] z8 | 
[V:5] z8 | 
[V:1] F2E2F4 | 
[V:2] A4F4- | 
[V:3] z8 | 
[V:4] z8 | 
[V:5] z8 | 
[V:1] G8 | 
[V:2] F2D2E3D | 
[V:3] z8 | 
[V:4] z8 | 
[V:5] z8 | 
[V:1] F8 ||  
[V:2] F8 ||  
[V:3] z8 ||  
[V:4] z8 ||  
[V:5] z8 ||  
[V:1]  [K:F] [K:clef=treble][M:2/1]B8- | 
[V:2]  [K:F] [K:clef=treble][M:2/1]G6FE | 
[V:3]  [K:F] [K:clef=treble-8][M:2/1]z8 | 
[V:4]  [K:F] [K:clef=treble-8][M:2/1]z8 | 
[V:5]  [K:F] [K:clef=bass][M:2/1]z8 | 
[V:1] B8- | 
[V:2] D4G4- | 
[V:3] z8 | 
[V:4] z8 | 
[V:5] z8 | 
[V:1] B8- | 
[V:2] G4D4 | 
[V:3] z8 | 
[V:4] z8 | 
[V:5] z8 | 
[V:1] B8 | 
[V:2] G6A2 | 
[V:3] z8 | 
[V:4] z8 | 
[V:5] z8 | 
[V:1] A8 | 
[V:2] F8 | 
[V:3] z8 | 
[V:4] z8 | 
[V:5] z8 | 
[V:1] G4E4 | 
[V:2] B8 | 
[V:3] z8 | 
[V:4] z8 | 
[V:5] z8 | 
[V:1] F8 | 
[V:2] A8 | 
[V:3] z8 | 
[V:4] z8 | 
[V:5] z8 | 
[V:1] G4B4- | 
[V:2] G4d4- | 
[V:3] z8 | 
[V:4] z8 | 
[V:5] z8 | 
[V:1] B2A2A4- | 
[V:2] d4c4 | 
[V:3] z8 | 
[V:4] z8 | 
[V:5] z8 | 
[V:1] A4G4 | 
[V:2] B8 | 
[V:3] z8 | 
[V:4] z8 | 
[V:5] z8 | 
[V:1] A8 | 
[V:2] A4c4 | 
[V:3] z8 | 
[V:4] z8 | 
[V:5] z8 | 
[V:1] G8 | 
[V:2] B6AG | 
[V:3] z8 | 
[V:4] z8 | 
[V:5] z8 | 
[V:1] F8 | 
[V:2] A6GF | 
[V:3] z8 | 
[V:4] z8 | 
[V:5] z8 | 
[V:1] E6F2 | 
[V:2] G4C4 | 
[V:3] z8 | 
[V:4] z8 | 
[V:5] z8 | 
[V:1] G4A4- | 
[V:2] z4c4- | 
[V:3] z8 | 
[V:4] z8 | 
[V:5] z8 | 
[V:1] A4F4- | 
[V:2] c4A4 | 
[V:3] z8 | 
[V:4] z8 | 
[V:5] z8 | 
[V:1] F4E4 | 
[V:2] G8 | 
[V:3] z8 | 
[V:4] z8 | 
[V:5] z8 | 
[V:1] F8 ||  
[V:2] F8 ||  
[V:3] z8 ||  
[V:4] z8 ||  
[V:5] z8 ||  
[V:1]  [K:F] [K:clef=treble][M:2/1]B8- | 
[V:2]  [K:F] [K:clef=treble][M:2/1]z8 | 
[V:3]  [K:F] [K:clef=treble-8][M:2/1]d8- | 
[V:4]  [K:F] [K:clef=treble-8][M:2/1]G6F2 | 
[V:5]  [K:F] [K:clef=bass][M:2/1]z8 | 
[V:1] B8- | 
[V:2] z8 | 
[V:3] d8- | 
[V:4] G4D4 | 
[V:5] z8 | 
[V:1] B8- | 
[V:2] z8 | 
[V:3] d8- | 
[V:4] G4A4 | 
[V:5] z8 | 
[V:1] B8 | 
[V:2] z8 | 
[V:3] d8 | 
[V:4] B6AG | 
[V:5] z8 | 
[V:1] A8 | 
[V:2] z8 | 
[V:3] D8 | 
[V:4] F8 | 
[V:5] z8 | 
[V:1] G4G4- | 
[V:2] z8 | 
[V:3] d8 | 
[V:4] B8 | 
[V:5] z8 | 
[V:1] G4F4 | 
[V:2] z8 | 
[V:3] c8 | 
[V:4] A8 | 
[V:5] z8 | 
[V:1] G8- | 
[V:2] z8 | 
[V:3] B4_e4- | 
[V:4] G8- | 
[V:5] z8 | 
[V:1] G8 | 
[V:2] z8 | 
[V:3] e4d4- | 
[V:4] G4F4 | 
[V:5] z8 | 
[V:1] z4G4- | 
[V:2] z8 | 
[V:3] d4c4 | 
[V:4] E8 | 
[V:5] z8 | 
[V:1] G2F2F4 | 
[V:2] z8 | 
[V:3] B4d4- | 
[V:4] D8 | 
[V:5] z8 | 
[V:1] G4E4 | 
[V:2] z8 | 
[V:3] d2c2c4- | 
[V:4] E4C4 | 
[V:5] z8 | 
[V:1] F8 | 
[V:2] z8 | 
[V:3] c4=B4 | 
[V:4] D8 | 
[V:5] z8 | 
[V:1] E6F2 | 
[V:2] z8 | 
[V:3] c8 | 
[V:4] C8 | 
[V:5] z8 | 
[V:1] G4A4- | 
[V:2] z8 | 
[V:3] C8 | 
[V:4] c8 | 
[V:5] z8 | 
[V:1] A2F2F4- | 
[V:2] z8 | 
[V:3] D8 | 
[V:4] F8 | 
[V:5] z8 | 
[V:1] F2D2E4 | 
[V:2] z8 | 
[V:3] C8 | 
[V:4] G8 | 
[V:5] z8 | 
[V:1] F8 ||  
[V:2] z8 ||  
[V:3] c8 ||  
[V:4] F8 ||  
[V:5] z8 ||  
[V:1]  [K:F] [K:clef=treble][M:2/1]F8- | 
[V:2]  [K:F] [K:clef=treble][M:2/1]z8 | 
[V:3]  [K:F] [K:clef=treble-8][M:2/1]c8 | 
[V:4]  [K:F] [K:clef=treble-8][M:2/1]F8- | 
[V:5]  [K:F] [K:clef=bass][M:2/1]z8 | 
[V:1] F8 | 
[V:2] z8 | 
[V:3] d8 | 
[V:4] F4D4 | 
[V:5] z8 | 
[V:1] G8 | 
[V:2] z8 | 
[V:3] B4G4 | 
[V:4] E8 | 
[V:5] z8 | 
[V:1] A8 | 
[V:2] z8 | 
[V:3] D8 | 
[V:4] F8 | 
[V:5] z8 | 
[V:1] B8- | 
[V:2] z8 | 
[V:3] d8- | 
[V:4] G6F2 | 
[V:5] z8 | 
[V:1] B8 | 
[V:2] z8 | 
[V:3] d8- | 
[V:4] D4E4 | 
[V:5] z8 | 
[V:1] A8 | 
[V:2] z8 | 
[V:3] d8- | 
[V:4] F8 | 
[V:5] z8 | 
[V:1] G4G4- | 
[V:2] z8 | 
[V:3] d8 | 
[V:4] G4B4 | 
[V:5] z8 | 
[V:1] G4^F4 | 
[V:2] z8 | 
[V:3] c8 | 
[V:4] A8 | 
[V:5] z8 | 
[V:1] G8 | 
[V:2] z8 | 
[V:3] d8 | 
[V:4] G8- | 
[V:5] z8 | 
[V:1] z4B4- | 
[V:2] z8 | 
[V:3] e8 | 
[V:4] G8 | 
[V:5] z8 | 
[V:1] B2A2A4 | 
[V:2] z8 | 
[V:3] f4F4 | 
[V:4] F4A4 | 
[V:5] z8 | 
[V:1] G4E4 | 
[V:2] z8 | 
[V:3] E4C4 | 
[V:4] B4c4- | 
[V:5] z8 | 
[V:1] F8 | 
[V:2] z8 | 
[V:3] D8 | 
[V:4] c4=B4 | 
[V:5] z8 | 
[V:1] E8 | 
[V:2] z8 | 
[V:3] C8 | 
[V:4] c8 | 
[V:5] z8 | 
[V:1] z4F4 | 
[V:2] z8 | 
[V:3] B,8 | 
[V:4] d8 | 
[V:5] z8 | 
[V:1] G4A4- | 
[V:2] z8 | 
[V:3] z4F4- | 
[V:4] c8 | 
[V:5] z8 | 
[V:1] A2F2F4- | 
[V:2] z8 | 
[V:3] F4B,4 | 
[V:4] A4B4 | 
[V:5] z8 | 
[V:1] F4E4 | 
[V:2] z8 | 
[V:3] C8 | 
[V:4] G8 | 
[V:5] z8 | 
[V:1] F8 ||  
[V:2] z8 ||  
[V:3] c8 ||  
[V:4] F8 ||  
[V:5] z8 ||  
[V:1]  [K:F] [K:clef=treble][M:2/1]F8 | 
[V:2]  [K:F] [K:clef=treble][M:2/1]z8 | 
[V:3]  [K:F] [K:clef=treble-8][M:2/1]z8 | 
[V:4]  [K:F] [K:clef=treble-8][M:2/1]z8 | 
[V:5]  [K:F] [K:clef=bass][M:2/1]z8 | 
[V:1] G8 | 
[V:2] z8 | 
[V:3] z8 | 
[V:4] z8 | 
[V:5] z8 | 
[V:1] A8 | 
[V:2] F8 | 
[V:3] z8 | 
[V:4] z8 | 
[V:5] z8 | 
[V:1] B8 | 
[V:2] G8 | 
[V:3] z8 | 
[V:4] z8 | 
[V:5] z8 | 
[V:1] A8 | 
[V:2] A8 | 
[V:3] z8 | 
[V:4] z8 | 
[V:5] z8 | 
[V:1] G4E4 | 
[V:2] B8 | 
[V:3] z8 | 
[V:4] z8 | 
[V:5] z8 | 
[V:1] F8 | 
[V:2] A8 | 
[V:3] z8 | 
[V:4] z8 | 
[V:5] z8 | 
[V:1] z4G4 | 
[V:2] G4E4 | 
[V:3] z8 | 
[V:4] z8 | 
[V:5] z8 | 
[V:1] A8 | 
[V:2] F8 | 
[V:3] z8 | 
[V:4] z8 | 
[V:5] z8 | 
[V:1] G4E4 | 
[V:2] z4G4 | 
[V:3] z8 | 
[V:4] z8 | 
[V:5] z8 | 
[V:1] F8 | 
[V:2] A8 | 
[V:3] z8 | 
[V:4] z8 | 
[V:5] z8 | 
[V:1] E4E4- | 
[V:2] G4E4 | 
[V:3] z8 | 
[V:4] z8 | 
[V:5] z8 | 
[V:1] E2C2D4 | 
[V:2] F8 | 
[V:3] z8 | 
[V:4] z8 | 
[V:5] z8 | 
[V:1] E8 | 
[V:2] E4E4- | 
[V:3] z8 | 
[V:4] z8 | 
[V:5] z8 | 
[V:1] z4F4 | 
[V:2] E2C2D4 | 
[V:3] z8 | 
[V:4] z8 | 
[V:5] z8 | 
[V:1] E4G4- | 
[V:2] E8 | 
[V:3] z8 | 
[V:4] z8 | 
[V:5] z8 | 
[V:1] G2F2A4- | 
[V:2] C8 | 
[V:3] z8 | 
[V:4] z8 | 
[V:5] z8 | 
[V:1] A4F4 | 
[V:2] D4F4- | 
[V:3] z8 | 
[V:4] z8 | 
[V:5] z8 | 
[V:1] G8 | 
[V:2] F4E4 | 
[V:3] z8 | 
[V:4] z8 | 
[V:5] z8 | 
[V:1] F8 ||  
[V:2] F8 ||  
[V:3] z8 ||  
[V:4] z8 ||  
[V:5] z8 ||  
[V:1]  [K:F] [K:clef=treble][M:2/1]c8 | 
[V:2]  [K:F] [K:clef=treble][M:2/1]z8 | 
[V:3]  [K:F] [K:clef=treble-8][M:2/1]c8 | 
[V:4]  [K:F] [K:clef=treble-8][M:2/1]z8 | 
[V:5]  [K:F] [K:clef=bass][M:2/1]z8 | 
[V:1] B4A4 | 
[V:2] z8 | 
[V:3] d4f4- | 
[V:4] z8 | 
[V:5] z8 | 
[V:1] G8 | 
[V:2] z8 | 
[V:3] f4e4 | 
[V:4] z8 | 
[V:5] z8 | 
[V:1] F8 | 
[V:2] z8 | 
[V:3] f8 | 
[V:4] z8 | 
[V:5] z8 | 
[V:1] z4A4 | 
[V:2] z8 | 
[V:3] e8 | 
[V:4] c8 | 
[V:5] z8 | 
[V:1] G4c4- | 
[V:2] z8 | 
[V:3] z4A4 | 
[V:4] B4c4 | 
[V:5] z8 | 
[V:1] c4=B4 | 
[V:2] z8 | 
[V:3] G8 | 
[V:4] d8 | 
[V:5] z8 | 
[V:1] c8- | 
[V:2] z8 | 
[V:3] A8 | 
[V:4] c8 | 
[V:5] z8 | 
[V:1] c8 | 
[V:2] z8 | 
[V:3] c8 | 
[V:4] _e8 | 
[V:5] z8 | 
[V:1] d8 | 
[V:2] z8 | 
[V:3] G8 | 
[V:4] d4B4 | 
[V:5] z8 | 
[V:1] c4B4- | 
[V:2] z8 | 
[V:3] z8 | 
[V:4] c4d4 | 
[V:5] z8 | 
[V:1] B2A2A4- | 
[V:2] z8 | 
[V:3] c8 | 
[V:4] A8 | 
[V:5] z8 | 
[V:1] A4G4 | 
[V:2] z8 | 
[V:3] d8- | 
[V:4] B8 | 
[V:5] z8 | 
[V:1] A8 | 
[V:2] z8 | 
[V:3] d8- | 
[V:4] A8 | 
[V:5] D,8- | 
[V:1] z8 | 
[V:2] z8 | 
[V:3] d8 | 
[V:4] F8 | 
[V:5] D,8 | 
[V:1] G8- | 
[V:2] z8 | 
[V:3] B8 | 
[V:4] G4E4 | 
[V:5] E,8- | 
[V:1] G8 | 
[V:2] z8 | 
[V:3] c8 | 
[V:4] G8 | 
[V:5] E,8 | 
[V:1] F8- | 
[V:2] z8 | 
[V:3] d8- | 
[V:4] A8- | 
[V:5] D,8- | 
[V:1] F4E2D2 | 
[V:2] z8 | 
[V:3] d8 | 
[V:4] A4B4 | 
[V:5] D,8 | 
[V:1] E8- | 
[V:2] z8 | 
[V:3] G8- | 
[V:4] c8- | 
[V:5] C,8- | 
[V:1] E8 | 
[V:2] z8 | 
[V:3] G8 | 
[V:4] c8 | 
[V:5] C,8 | 
[V:1] F8 | 
[V:2] z8 | 
[V:3] z8 | 
[V:4] A8 | 
[V:5] D,8 | 
[V:1] G8- | 
[V:2] z8 | 
[V:3] c6d2 | 
[V:4] G8 | 
[V:5] E,4C,4- | 
[V:1] G4A4- | 
[V:2] z8 | 
[V:3] e4f4- | 
[V:4] c8 | 
[V:5] C,4F,4- | 
[V:1] A4F4- | 
[V:2] z8 | 
[V:3] f4d4 | 
[V:4] A4B4 | 
[V:5] F,4B,,4 | 
[V:1] F4E4 | 
[V:2] z8 | 
[V:3] c8 | 
[V:4] G8 | 
[V:5] C,8 | 
[V:1] F8- | 
[V:2] z8 | 
[V:3] A8- | 
[V:4] F8- | 
[V:5] C8- | 
[V:1] F8- | 
[V:2] z8 | 
[V:3] A8 | 
[V:4] F8 | 
[V:5] C8 | 
[V:1] F8- | 
[V:2] z8 | 
[V:3] c8- | 
[V:4] A8- | 
[V:5] F,8- | 
[V:1] F8- | 
[V:2] z8 | 
[V:3] c8 | 
[V:4] A8 | 
[V:5] F,8 | 
[V:1] F8- | 
[V:2] z8 | 
[V:3] d8- | 
[V:4] B8- | 
[V:5] B,,8- | 
[V:1] F8 | 
[V:2] z8 | 
[V:3] d8 | 
[V:4] B4G4 | 
[V:5] B,,8 | 
[V:1] G8- | 
[V:2] z8 | 
[V:3] B8- | 
[V:4] G8- | 
[V:5] _E,8- | 
[V:1] G4E4 | 
[V:2] z8 | 
[V:3] B8 | 
[V:4] G8- | 
[V:5] E,4C,4 | 
[V:1] E8- | 
[V:2] z8 | 
[V:3] c8- | 
[V:4] G8- | 
[V:5] C,8- | 
[V:1] E8 | 
[V:2] z8 | 
[V:3] c8 | 
[V:4] G8 | 
[V:5] C,8 | 
[V:1] F8 |]  
[V:2] z8 |]  
[V:3] c8 |]  
[V:4] F8 |]  
[V:5] F,8 |]  



